X: 17742
T: Hommage A Andre Alain
R: reel
M: 4/4
K: Amajor
EGAB e2 Bd|c2 Ac BG E2-|EGAc dcBA|[M:6/4]GABG E2 EE E3 G|
[M:4/4]EFAc dcBA|GBBG A4|EGAB e2 Bd|
c2 Ac BG E2-|EGAc dcBA|[M:6/4]GABG E2 EE E3 G||
[M:4/4]EFAc dcBA|GBBG A4|d2cd e3c|dcBA cBAG|
EGAc dcBA|EdEd B2 AG|ABcd e2-ec|dcBA cBAE|
GBBG A4|d2cd e2-ec|dcBA cBAG|EGAc dcBA|
EdEd B2 AG|ABcd e2-ec|dcBA cBAE|GBBG A4||

